assets/1. F-P/High-heeled shoe/Color/High-heeled.Shoe-color.svg

<svg width="100%" height="100%" viewBox="0 0 32 32" fill="none" xmlns="http://www.w3.org/2000/svg">
<rect x="2.10376" y="17.1094" width="2.21875" height="12.8438" fill="#402D54"/>
<rect x="2.10376" y="17.1094" width="2.21875" height="12.8438" fill="url(#paint0_linear_18_17275)"/>
<rect x="2.10376" y="17.1094" width="2.21875" height="12.8438" fill="url(#paint1_linear_18_17275)"/>
<rect x="2.10376" y="17.1094" width="2.21875" height="12.8438" fill="url(#paint2_linear_18_17275)"/>
<g filter="url(#filter0_iii_18_17275)">
<path d="M2.07249 11.7499V17.1249H5.0256C8.7756 17.25 9.55685 19.7031 9.55685 22.1875L9.51103 26.8429C9.49324 28.6503 10.9534 30.1249 12.7609 30.1249H28.9475C29.6378 30.1249 29.9787 29.6641 29.9397 28.8828C29.8069 27.8438 29.164 27.1304 28.8381 26.7812C23.7131 20.9583 13.16 8.87808 11.385 6.70308C10.4221 5.52322 9.56574 4.59811 8.5881 4.17185C7.35373 3.70312 5.89793 3.86638 4.44748 5.07792C2.25997 7.21856 1.97874 10.052 2.07249 11.7499Z" fill="#EF1B64"/>
<path d="M2.07249 11.7499V17.1249H5.0256C8.7756 17.25 9.55685 19.7031 9.55685 22.1875L9.51103 26.8429C9.49324 28.6503 10.9534 30.1249 12.7609 30.1249H28.9475C29.6378 30.1249 29.9787 29.6641 29.9397 28.8828C29.8069 27.8438 29.164 27.1304 28.8381 26.7812C23.7131 20.9583 13.16 8.87808 11.385 6.70308C10.4221 5.52322 9.56574 4.59811 8.5881 4.17185C7.35373 3.70312 5.89793 3.86638 4.44748 5.07792C2.25997 7.21856 1.97874 10.052 2.07249 11.7499Z" fill="url(#paint3_radial_18_17275)"/>
</g>
<g filter="url(#filter1_i_18_17275)">
<path d="M8.96211 4.36182C8.53099 5.16827 8.60919 6.19006 9.23717 6.92914L21.7581 21.6659C22.5103 22.5512 23.79 22.7236 24.7417 22.1135C19.4299 16.048 12.7629 8.39136 11.3851 6.70306C10.5468 5.6759 9.78926 4.84174 8.96211 4.36182Z" fill="#7E7985"/>
<path d="M8.96211 4.36182C8.53099 5.16827 8.60919 6.19006 9.23717 6.92914L21.7581 21.6659C22.5103 22.5512 23.79 22.7236 24.7417 22.1135C19.4299 16.048 12.7629 8.39136 11.3851 6.70306C10.5468 5.6759 9.78926 4.84174 8.96211 4.36182Z" fill="url(#paint4_radial_18_17275)"/>
<path d="M8.96211 4.36182C8.53099 5.16827 8.60919 6.19006 9.23717 6.92914L21.7581 21.6659C22.5103 22.5512 23.79 22.7236 24.7417 22.1135C19.4299 16.048 12.7629 8.39136 11.3851 6.70306C10.5468 5.6759 9.78926 4.84174 8.96211 4.36182Z" fill="url(#paint5_linear_18_17275)"/>
</g>
<defs>
<filter id="filter0_iii_18_17275" x="1.55713" y="3.9292" width="28.8855" height="26.4457" filterUnits="userSpaceOnUse" color-interpolation-filters="sRGB">
<feFlood flood-opacity="0" result="BackgroundImageFix"/>
<feBlend mode="normal" in="SourceGraphic" in2="BackgroundImageFix" result="shape"/>
<feColorMatrix in="SourceAlpha" type="matrix" values="0 0 0 0 0 0 0 0 0 0 0 0 0 0 0 0 0 0 127 0" result="hardAlpha"/>
<feOffset dx="0.75"/>
<feGaussianBlur stdDeviation="0.25"/>
<feComposite in2="hardAlpha" operator="arithmetic" k2="-1" k3="1"/>
<feColorMatrix type="matrix" values="0 0 0 0 1 0 0 0 0 0.333333 0 0 0 0 0.478431 0 0 0 1 0"/>
<feBlend mode="normal" in2="shape" result="effect1_innerShadow_18_17275"/>
<feColorMatrix in="SourceAlpha" type="matrix" values="0 0 0 0 0 0 0 0 0 0 0 0 0 0 0 0 0 0 127 0" result="hardAlpha"/>
<feOffset dx="0.5"/>
<feGaussianBlur stdDeviation="0.5"/>
<feComposite in2="hardAlpha" operator="arithmetic" k2="-1" k3="1"/>
<feColorMatrix type="matrix" values="0 0 0 0 0.74902 0 0 0 0 0.184314 0 0 0 0 0.219608 0 0 0 1 0"/>
<feBlend mode="normal" in2="effect1_innerShadow_18_17275" result="effect2_innerShadow_18_17275"/>
<feColorMatrix in="SourceAlpha" type="matrix" values="0 0 0 0 0 0 0 0 0 0 0 0 0 0 0 0 0 0 127 0" result="hardAlpha"/>
<feOffset dx="-0.5" dy="0.25"/>
<feGaussianBlur stdDeviation="0.5"/>
<feComposite in2="hardAlpha" operator="arithmetic" k2="-1" k3="1"/>
<feColorMatrix type="matrix" values="0 0 0 0 1 0 0 0 0 0.121569 0 0 0 0 0.309804 0 0 0 1 0"/>
<feBlend mode="normal" in2="effect2_innerShadow_18_17275" result="effect3_innerShadow_18_17275"/>
</filter>
<filter id="filter1_i_18_17275" x="8.29141" y="4.36182" width="16.4503" height="18.5127" filterUnits="userSpaceOnUse" color-interpolation-filters="sRGB">
<feFlood flood-opacity="0" result="BackgroundImageFix"/>
<feBlend mode="normal" in="SourceGraphic" in2="BackgroundImageFix" result="shape"/>
<feColorMatrix in="SourceAlpha" type="matrix" values="0 0 0 0 0 0 0 0 0 0 0 0 0 0 0 0 0 0 127 0" result="hardAlpha"/>
<feOffset dx="-0.4" dy="0.4"/>
<feGaussianBlur stdDeviation="0.5"/>
<feComposite in2="hardAlpha" operator="arithmetic" k2="-1" k3="1"/>
<feColorMatrix type="matrix" values="0 0 0 0 0.192157 0 0 0 0 0.137255 0 0 0 0 0.25098 0 0 0 1 0"/>
<feBlend mode="normal" in2="shape" result="effect1_innerShadow_18_17275"/>
</filter>
<linearGradient id="paint0_linear_18_17275" x1="4.32251" y1="29.9531" x2="3.54126" y2="29.9531" gradientUnits="userSpaceOnUse">
<stop stop-color="#442145"/>
<stop offset="1" stop-color="#442145" stop-opacity="0"/>
</linearGradient>
<linearGradient id="paint1_linear_18_17275" x1="2.32251" y1="29.9531" x2="3.47876" y2="29.9531" gradientUnits="userSpaceOnUse">
<stop offset="0.297297" stop-color="#544D5E"/>
<stop offset="1" stop-color="#544D5E" stop-opacity="0"/>
</linearGradient>
<linearGradient id="paint2_linear_18_17275" x1="2.15063" y1="29.9531" x2="2.3772" y2="29.9531" gradientUnits="userSpaceOnUse">
<stop stop-color="#3D3646"/>
<stop offset="1" stop-color="#3D3646" stop-opacity="0"/>
</linearGradient>
<radialGradient id="paint3_radial_18_17275" cx="0" cy="0" r="1" gradientUnits="userSpaceOnUse" gradientTransform="translate(23.9787 22.125) rotate(49.9863) scale(9.91492 1.7401)">
<stop stop-color="#FF6B8B"/>
<stop offset="1" stop-color="#FF6B8B" stop-opacity="0"/>
</radialGradient>
<radialGradient id="paint4_radial_18_17275" cx="0" cy="0" r="1" gradientUnits="userSpaceOnUse" gradientTransform="translate(18.1664 11.875) rotate(143.213) scale(8.66251 13.5746)">
<stop offset="0.786007" stop-color="#342743" stop-opacity="0"/>
<stop offset="0.95216" stop-color="#342743"/>
</radialGradient>
<linearGradient id="paint5_linear_18_17275" x1="13.7368" y1="18.2637" x2="17.2127" y2="15.6287" gradientUnits="userSpaceOnUse">
<stop offset="0.455357" stop-color="#3A2C48"/>
<stop offset="1" stop-color="#3A2C48" stop-opacity="0"/>
</linearGradient>
</defs>
</svg>

<svg width="100%" height="100%" viewBox="0 0 32 32" xmlns="http://www.w3.org/2000/svg"><path fill="#402D54" d="M2.104 17.109h2.219v12.844H2.104z"/><path fill="url(#a)" d="M2.104 17.109h2.219v12.844H2.104z"/><path fill="url(#b)" d="M2.104 17.109h2.219v12.844H2.104z"/><path fill="url(#c)" d="M2.104 17.109h2.219v12.844H2.104z"/><g filter="url(#d)"><path fill="#EF1B64" d="M2.072 11.75v5.375h2.954c3.75.125 4.53 2.578 4.53 5.063l-.045 4.655a3.25 3.25 0 0 0 3.25 3.282h16.187c.69 0 1.03-.46.992-1.242-.133-1.04-.776-1.753-1.102-2.102C23.713 20.958 13.16 8.878 11.385 6.703c-.963-1.18-1.82-2.105-2.797-2.531-1.234-.469-2.69-.306-4.14.906-2.188 2.14-2.47 4.974-2.376 6.672"/><path fill="url(#e)" d="M2.072 11.75v5.375h2.954c3.75.125 4.53 2.578 4.53 5.063l-.045 4.655a3.25 3.25 0 0 0 3.25 3.282h16.187c.69 0 1.03-.46.992-1.242-.133-1.04-.776-1.753-1.102-2.102C23.713 20.958 13.16 8.878 11.385 6.703c-.963-1.18-1.82-2.105-2.797-2.531-1.234-.469-2.69-.306-4.14.906-2.188 2.14-2.47 4.974-2.376 6.672"/></g><g filter="url(#f)"><path fill="#7E7985" d="M8.962 4.362a2.29 2.29 0 0 0 .275 2.567l12.521 14.737a2.294 2.294 0 0 0 2.984.447c-5.312-6.065-11.98-13.722-13.357-15.41-.838-1.027-1.596-1.861-2.423-2.341"/><path fill="url(#g)" d="M8.962 4.362a2.29 2.29 0 0 0 .275 2.567l12.521 14.737a2.294 2.294 0 0 0 2.984.447c-5.312-6.065-11.98-13.722-13.357-15.41-.838-1.027-1.596-1.861-2.423-2.341"/><path fill="url(#h)" d="M8.962 4.362a2.29 2.29 0 0 0 .275 2.567l12.521 14.737a2.294 2.294 0 0 0 2.984.447c-5.312-6.065-11.98-13.722-13.357-15.41-.838-1.027-1.596-1.861-2.423-2.341"/></g><defs><linearGradient id="a" x1="4.323" x2="3.541" y1="29.953" y2="29.953" gradientUnits="userSpaceOnUse"><stop stop-color="#442145"/><stop offset="1" stop-color="#442145" stop-opacity="0"/></linearGradient><linearGradient id="b" x1="2.323" x2="3.479" y1="29.953" y2="29.953" gradientUnits="userSpaceOnUse"><stop offset=".297" stop-color="#544D5E"/><stop offset="1" stop-color="#544D5E" stop-opacity="0"/></linearGradient><linearGradient id="c" x1="2.151" x2="2.377" y1="29.953" y2="29.953" gradientUnits="userSpaceOnUse"><stop stop-color="#3D3646"/><stop offset="1" stop-color="#3D3646" stop-opacity="0"/></linearGradient><linearGradient id="h" x1="13.737" x2="17.213" y1="18.264" y2="15.629" gradientUnits="userSpaceOnUse"><stop offset=".455" stop-color="#3A2C48"/><stop offset="1" stop-color="#3A2C48" stop-opacity="0"/></linearGradient><radialGradient id="e" cx="0" cy="0" r="1" gradientTransform="rotate(49.986 -11.742 36.782)scale(9.91492 1.7401)" gradientUnits="userSpaceOnUse"><stop stop-color="#FF6B8B"/><stop offset="1" stop-color="#FF6B8B" stop-opacity="0"/></radialGradient><radialGradient id="g" cx="0" cy="0" r="1" gradientTransform="rotate(143.213 7.109 8.958)scale(8.66251 13.5746)" gradientUnits="userSpaceOnUse"><stop offset=".786" stop-color="#342743" stop-opacity="0"/><stop offset=".952" stop-color="#342743"/></radialGradient><filter id="d" width="28.886" height="26.446" x="1.557" y="3.929" color-interpolation-filters="sRGB" filterUnits="userSpaceOnUse"><feFlood flood-opacity="0" result="BackgroundImageFix"/><feBlend in="SourceGraphic" in2="BackgroundImageFix" result="shape"/><feColorMatrix in="SourceAlpha" result="hardAlpha" values="0 0 0 0 0 0 0 0 0 0 0 0 0 0 0 0 0 0 127 0"/><feOffset dx=".75"/><feGaussianBlur stdDeviation=".25"/><feComposite in2="hardAlpha" k2="-1" k3="1" operator="arithmetic"/><feColorMatrix values="0 0 0 0 1 0 0 0 0 0.333333 0 0 0 0 0.478431 0 0 0 1 0"/><feBlend in2="shape" result="effect1_innerShadow_18_17275"/><feColorMatrix in="SourceAlpha" result="hardAlpha" values="0 0 0 0 0 0 0 0 0 0 0 0 0 0 0 0 0 0 127 0"/><feOffset dx=".5"/><feGaussianBlur stdDeviation=".5"/><feComposite in2="hardAlpha" k2="-1" k3="1" operator="arithmetic"/><feColorMatrix values="0 0 0 0 0.74902 0 0 0 0 0.184314 0 0 0 0 0.219608 0 0 0 1 0"/><feBlend in2="effect1_innerShadow_18_17275" result="effect2_innerShadow_18_17275"/><feColorMatrix in="SourceAlpha" result="hardAlpha" values="0 0 0 0 0 0 0 0 0 0 0 0 0 0 0 0 0 0 127 0"/><feOffset dx="-.5" dy=".25"/><feGaussianBlur stdDeviation=".5"/><feComposite in2="hardAlpha" k2="-1" k3="1" operator="arithmetic"/><feColorMatrix values="0 0 0 0 1 0 0 0 0 0.121569 0 0 0 0 0.309804 0 0 0 1 0"/><feBlend in2="effect2_innerShadow_18_17275" result="effect3_innerShadow_18_17275"/></filter><filter id="f" width="16.45" height="18.513" x="8.291" y="4.362" color-interpolation-filters="sRGB" filterUnits="userSpaceOnUse"><feFlood flood-opacity="0" result="BackgroundImageFix"/><feBlend in="SourceGraphic" in2="BackgroundImageFix" result="shape"/><feColorMatrix in="SourceAlpha" result="hardAlpha" values="0 0 0 0 0 0 0 0 0 0 0 0 0 0 0 0 0 0 127 0"/><feOffset dx="-.4" dy=".4"/><feGaussianBlur stdDeviation=".5"/><feComposite in2="hardAlpha" k2="-1" k3="1" operator="arithmetic"/><feColorMatrix values="0 0 0 0 0.192157 0 0 0 0 0.137255 0 0 0 0 0.25098 0 0 0 1 0"/><feBlend in2="shape" result="effect1_innerShadow_18_17275"/></filter></defs></svg>
